svgs/SQLElasticDatabasePools.svg

<?xml version="1.0" encoding="utf-8"?>
<!-- Generator: Adobe Illustrator 21.0.0, SVG Export Plug-In . SVG Version: 6.00 Build 0)  -->
<svg version="1.1" id="Layer_1" xmlns="http://www.w3.org/2000/svg" xmlns:xlink="http://www.w3.org/1999/xlink" x="0px" y="0px"
	 width="74px" height="74px" viewBox="0 0 74 74" enable-background="new 0 0 74 74" xml:space="preserve">
<path fill="#0072C6" d="M23.5,30.5c0,1.105-2.462,2-5.5,2s-5.5-0.895-5.5-2s2.463-2,5.5-2S23.5,29.395,23.5,30.5"/>
<path fill="#0072C6" d="M61.5,30.5c0,1.105-2.462,2-5.5,2s-5.5-0.895-5.5-2s2.463-2,5.5-2S61.5,29.395,61.5,30.5"/>
<path fill="#0072C6" d="M42.5,10.5c0,1.105-2.462,2-5.5,2s-5.5-0.895-5.5-2s2.463-2,5.5-2S42.5,9.395,42.5,10.5"/>
<path fill="#0072C6" d="M71.999,32.175L41.828,2.001C40.539,0.71,38.823,0,37.001,0c-1.823,0-3.537,0.71-4.826,2.001L1.999,32.175
	C0.728,33.444,0,35.203,0,36.999c0,1.798,0.728,3.555,1.999,4.826l30.176,30.174C33.461,73.29,35.178,74,37.001,74
	c1.822,0,3.539-0.71,4.826-2.001l30.17-30.171C73.291,40.539,74,38.824,74,36.999S73.291,33.459,71.999,32.175z M25.5,30.5v14.73
	l0,0c0,1.531-3.358,2.77-7.5,2.77c-0.005,0-0.009,0-0.014,0h-0.089v-0.002c-4.094-0.021-7.397-1.251-7.397-2.768V30.5
	c0-1.933,3.358-3.5,7.5-3.5S25.5,28.567,25.5,30.5L25.5,30.5z M44.5,50.5v14.73l0,0c0,1.531-3.358,2.77-7.5,2.77
	c-0.005,0-0.009,0-0.014,0h-0.089v-0.002c-4.094-0.021-7.397-1.251-7.397-2.768V50.5c0-1.933,3.358-3.5,7.5-3.5
	S44.5,48.567,44.5,50.5L44.5,50.5z M44.5,10.5v14.73l0,0c0,1.531-3.358,2.77-7.5,2.77c-0.005,0-0.009,0-0.014,0h-0.089v-0.002
	c-4.094-0.021-7.397-1.251-7.397-2.768V10.5C29.5,8.567,32.858,7,37,7S44.5,8.567,44.5,10.5L44.5,10.5z M63.5,30.5v14.73l0,0
	c0,1.531-3.358,2.77-7.5,2.77c-0.005,0-0.009,0-0.014,0h-0.089v-0.002c-4.094-0.021-7.397-1.251-7.397-2.768V30.5
	c0-1.933,3.358-3.5,7.5-3.5S63.5,28.567,63.5,30.5L63.5,30.5z"/>
<path fill="#0072C6" d="M42.5,50.5c0,1.105-2.462,2-5.5,2s-5.5-0.895-5.5-2s2.463-2,5.5-2S42.5,49.395,42.5,50.5"/>
</svg>

<?xml version="1.0" encoding="UTF-8" standalone="no"?>
<!-- Generator: Adobe Illustrator 21.0.0, SVG Export Plug-In . SVG Version: 6.00 Build 0)  -->

<svg
   xmlns:dc="http://purl.org/dc/elements/1.1/"
   xmlns:cc="http://creativecommons.org/ns#"
   xmlns:rdf="http://www.w3.org/1999/02/22-rdf-syntax-ns#"
   xmlns:svg="http://www.w3.org/2000/svg"
   xmlns="http://www.w3.org/2000/svg"
   xmlns:sodipodi="http://sodipodi.sourceforge.net/DTD/sodipodi-0.dtd"
   xmlns:inkscape="http://www.inkscape.org/namespaces/inkscape"
   version="1.1"
   id="Layer_1"
   x="0px"
   y="0px"
   width="74"
   height="74"
   viewBox="0 0 74 74"
   enable-background="new 0 0 74 74"
   xml:space="preserve"
   sodipodi:docname="SQLElasticDatabasePools.svg"
   inkscape:version="0.92.4 (5da689c313, 2019-01-14)"><metadata
   id="metadata17"><rdf:RDF><cc:Work
       rdf:about=""><dc:format>image/svg+xml</dc:format><dc:type
         rdf:resource="http://purl.org/dc/dcmitype/StillImage" /></cc:Work></rdf:RDF></metadata><defs
   id="defs15" /><sodipodi:namedview
   pagecolor="#ffffff"
   bordercolor="#666666"
   borderopacity="1"
   objecttolerance="10"
   gridtolerance="10"
   guidetolerance="10"
   inkscape:pageopacity="0"
   inkscape:pageshadow="2"
   inkscape:window-width="713"
   inkscape:window-height="543"
   id="namedview13"
   showgrid="false"
   inkscape:zoom="3.1891892"
   inkscape:cx="37"
   inkscape:cy="37"
   inkscape:window-x="0"
   inkscape:window-y="0"
   inkscape:window-maximized="0"
   inkscape:current-layer="Layer_1" />
<path
   d="m 23.5,30.5 c 0,1.105 -2.462,2 -5.5,2 -3.038,0 -5.5,-0.895 -5.5,-2 0,-1.105 2.463,-2 5.5,-2 3.037,0 5.5,0.895 5.5,2"
   id="path2"
   inkscape:connector-curvature="0"
   style="fill:#0072c6" />
<path
   d="m 61.5,30.5 c 0,1.105 -2.462,2 -5.5,2 -3.038,0 -5.5,-0.895 -5.5,-2 0,-1.105 2.463,-2 5.5,-2 3.037,0 5.5,0.895 5.5,2"
   id="path4"
   inkscape:connector-curvature="0"
   style="fill:#0072c6" />
<path
   d="m 42.5,10.5 c 0,1.105 -2.462,2 -5.5,2 -3.038,0 -5.5,-0.895 -5.5,-2 0,-1.105 2.463,-2 5.5,-2 3.037,0 5.5,0.895 5.5,2"
   id="path6"
   inkscape:connector-curvature="0"
   style="fill:#0072c6" />
<path
   d="M 71.999,32.175 41.828,2.001 C 40.539,0.71 38.823,0 37.001,0 35.178,0 33.464,0.71 32.175,2.001 L 1.999,32.175 C 0.728,33.444 0,35.203 0,36.999 c 0,1.798 0.728,3.555 1.999,4.826 L 32.175,71.999 C 33.461,73.29 35.178,74 37.001,74 c 1.822,0 3.539,-0.71 4.826,-2.001 L 71.997,41.828 C 73.291,40.539 74,38.824 74,36.999 74,35.174 73.291,33.459 71.999,32.175 Z M 25.5,30.5 v 14.73 0 c 0,1.531 -3.358,2.77 -7.5,2.77 -0.005,0 -0.009,0 -0.014,0 H 17.897 V 47.998 C 13.803,47.977 10.5,46.747 10.5,45.23 V 30.5 c 0,-1.933 3.358,-3.5 7.5,-3.5 4.142,0 7.5,1.567 7.5,3.5 z m 19,20 v 14.73 0 c 0,1.531 -3.358,2.77 -7.5,2.77 -0.005,0 -0.009,0 -0.014,0 H 36.897 V 67.998 C 32.803,67.977 29.5,66.747 29.5,65.23 V 50.5 c 0,-1.933 3.358,-3.5 7.5,-3.5 4.142,0 7.5,1.567 7.5,3.5 z m 0,-40 v 14.73 0 c 0,1.531 -3.358,2.77 -7.5,2.77 -0.005,0 -0.009,0 -0.014,0 H 36.897 V 27.998 C 32.803,27.977 29.5,26.747 29.5,25.23 V 10.5 C 29.5,8.567 32.858,7 37,7 c 4.142,0 7.5,1.567 7.5,3.5 z m 19,20 v 14.73 0 c 0,1.531 -3.358,2.77 -7.5,2.77 -0.005,0 -0.009,0 -0.014,0 H 55.897 V 47.998 C 51.803,47.977 48.5,46.747 48.5,45.23 V 30.5 c 0,-1.933 3.358,-3.5 7.5,-3.5 4.142,0 7.5,1.567 7.5,3.5 z"
   id="path8"
   inkscape:connector-curvature="0"
   style="fill:#0072c6" />
<path
   d="m 42.5,50.5 c 0,1.105 -2.462,2 -5.5,2 -3.038,0 -5.5,-0.895 -5.5,-2 0,-1.105 2.463,-2 5.5,-2 3.037,0 5.5,0.895 5.5,2"
   id="path10"
   inkscape:connector-curvature="0"
   style="fill:#0072c6" />
</svg>
